food-outline.svg

<svg fill="currentColor" viewBox="0 0 24 24"><path d="M1 22c0 .54.45 1 1 1h13c.56 0 1-.46 1-1v-1H1zM8.5 9C4.75 9 1 11 1 15h15c0-4-3.75-6-7.5-6m-4.88 4c1.11-1.55 3.47-2 4.88-2s3.77.45 4.88 2zM1 17h15v2H1zM18 5V1h-2v4h-5l.23 2h9.56l-1.4 14H18v2h1.72c.84 0 1.53-.65 1.63-1.47L23 5z"/></svg>

<svg  viewBox="0 0 24 24" fill="currentColor"><path  d="M1 22C1 22.54 1.45 23 2 23H15C15.56 23 16 22.54 16 22V21H1V22M8.5 9C4.75 9 1 11 1 15H16C16 11 12.25 9 8.5 9M3.62 13C4.73 11.45 7.09 11 8.5 11S12.27 11.45 13.38 13H3.62M1 17H16V19H1V17M18 5V1H16V5H11L11.23 7H20.79L19.39 21H18V23H19.72C20.56 23 21.25 22.35 21.35 21.53L23 5H18Z"/></svg>
